X: 129
T:Muiñeira Popular nº1
M:6/8
L:1/8
Q:200
C:Trad
R:Muiñeira
K:C
G2 c | BGB AFA | "~"G2 E G2 c | BGB AFA | G3"F."{c} G2 c | BGB AFA |GEG
FDF| 
ECE DB,D |1 {B,}C3 :|2  {B,}C3 "F."{G} |: CDE/"F."c/ | EDC/"F."G/ CDE |
"~"F2 D/"F."c/ DEF | GAG FED |1 C2 C/"F."c/ :|2 {B,}C3 ||

